icons/blocked-16.svg

<svg xmlns="http://www.w3.org/2000/svg" width="16" height="16" viewBox="0 0 16 16"><path fill-rule="evenodd" d="M4.467.22a.75.75 0 01.53-.22h6.006a.75.75 0 01.53.22l4.247 4.247c.141.14.22.331.22.53v6.006a.75.75 0 01-.22.53l-4.247 4.247a.75.75 0 01-.53.22H4.997a.75.75 0 01-.53-.22L.22 11.533a.75.75 0 01-.22-.53V4.997a.75.75 0 01.22-.53L4.467.22zm.84 1.28L1.5 5.308v5.384L5.308 14.5h5.384l3.808-3.808V5.308L10.692 1.5H5.308zM4 7.75A.75.75 0 014.75 7h6.5a.75.75 0 010 1.5h-6.5A.75.75 0 014 7.75z"/></svg>

<svg xmlns="http://www.w3.org/2000/svg" width="16" height="16" viewBox="0 0 16 16">
  <defs/>
  <path d="M4.467,0.22 C4.608,0.079 4.798,0 4.997,0 L11.003,0 C11.202,0 11.392,0.079 11.533,0.22 L15.78,4.467 C15.921,4.607 16,4.798 16,4.997 L16,11.003 C16,11.202 15.921,11.392 15.78,11.533 L11.533,15.78 C11.392,15.921 11.202,16 11.003,16 L4.997,16 C4.798,16 4.608,15.921 4.467,15.78 L0.22,11.533 C0.079,11.392 0,11.202 0,11.003 L0,4.997 C0,4.798 0.079,4.608 0.22,4.467 Z M5.307,1.5 L1.5,5.308 L1.5,10.692 L5.308,14.5 L10.692,14.5 L14.5,10.692 L14.5,5.308 L10.692,1.5 Z M4,7.75 C4,7.336 4.336,7 4.75,7 L11.25,7 C11.664,7 12,7.336 12,7.75 C12,8.164 11.664,8.5 11.25,8.5 L4.75,8.5 C4.336,8.5 4,8.164 4,7.75 Z"/>
</svg>
